X:1
T:Vultum tuum - Josquin des Prez
T:#
%%score [ 1 2 3 4 ]
L:1/8
Q:1/4=120
M:none
K:F
V:1 treble nm="Soprano" snm="S"
V:2 treble nm="Alto" snm="A"
V:3 treble-8 nm="Tenor" snm="T"
V:4 bass nm="Bass" snm="B"
V:1
"^Vultum tuum""^Josquin des Prez \n(1450-1521)""^Introit for feasts\nof the BVM" A12 B4 | %1
w: Vul- tum|
 (A6 G2 F2 E2 D4) | A4 F6 F2 E4 | F4 B4 A8 | F8 c6 B2 | A4 A8 A4 | z4 A6 A2 G4 | A4 G4 B8 | %8
w: tu\- * * * *|um de- pre- ca-|bun- tur om-|nes di- vi-|tes ple- bis,|de- pre- ca-|bun- tur om-|
 A4 c6 B2 A2 (A2- | A2 G2 B2 G2 A2 ^F2 G2 E2 | ^F2 D2 G8 F4) | G16 | z4 G6 A2 =B4 | c8 F8 | %14
w: nes di- vi- tes ple\-|||bis:|fi- li- ae|Re- gum|
 G6 A2 B4 c4 | (A8 G4 A4) | G8 z4 A4- | A2 B2 c4 d8- | d4 G4 z8 | c6 B2 A4 D4 | (F6 G2 A4 B4) | %21
w: in ho- no- re|tu\- * *|o, fi\-|* li- ae Re\-|* gum|in ho- no- re|tu\- * * *|
 A8 z8 | A6 B2 c4 (d4 | e4)[Q:1/4=118] (f6[Q:1/4=117] e2[Q:1/4=116] d4 | %24
w: o,|in ho- no- re|* tu\- * *|
[Q:1/4=115] c4[Q:1/4=113] B4[Q:1/4=111] A8- |[Q:1/4=109] A8)[Q:1/4=108] A16 |] %26
w: |* o.|
V:2
 z8 D8- | D4 C4 (D6 E2 | F2 G2 A4) A,8 | z4 D6 D2 ^C4 | D4 D4 z4 A,4- | A,4 F4 E6 E2 | F4 F8 D4 | %7
w: Vul\-|* tum tu\- *|* * * um|de- pre- ca-|bun- tur om\-|* nes di- vi-|tes ple- bis|
 z4 G6 F2 E4 | F4 C4 F8 | E4 D6 C2 B,4 | (A,4 D6 C2 D2 A,2) | =B,4 D8 G,4 | z4 E6 F2 G4 | A12 D4 | %14
w: de- pre- ca-|bun- tur om-|nes di- vi- tes|ple\- * * * *|bis, ple- bis:|fi- li- ae|Re- gum|
 z4 D8 E4 | F4 F,4 C8 | C8 z4 F4- | F2 G2 A4 B8 | F4 c8 B4 | A4 D4 (F6 G2) | A4 F8 D4 | %21
w: in ho-|no- re tu-|o fi\-|* li- ae Re-|gum in ho-|no- re tu\- *|o, in ho-|
 C6 =B,2 (C4 D4 | E6 FG) A8 | A,6 =B,2 C4 D4 | (E4 F6 E2 D4 | D4 ^C4) D16 |] %26
w: no- re tu\- *|* * * o,|in ho- no- re|tu\- * * *|* * o.|
V:3
 z16 | z16 | z16 | z8 A8- | A4 B4 (A6 G2 | F2 E2 D4) A8 | z8 z4 d4- | d2 d2 c4 d4 G4 | c8 A4 c4- | %9
w: |||Vul\-|* tum tu\- *|* * * um|de\-|* pre- ca- bun- tur|om- nes di\-|
 c2 c2 B4 (A6 G2 | A2 ^F2 B2 G2 A8) | G4 =B6 c2 d4 | e4 c4 e4 d4 | f6 e2 (c4 d4- | %14
w: * vi- tes ple\- *||bis: fi- li- ae|Re- gum in ho-|no- re tu\- *|
 d2 c2 B2 A2) G8 | c6 d2 e4 f4- | f4 e4 c4 c4 | f6 _e2 (d2 c2 B4 | A4 G2 c4 d2 e4) | f8 z4 f4- | %20
w: * * * * o,|fi- li- ae Re\-|* gum in ho-|no- re tu\- * *||o, in|
 f4 d4 c6 B2 | (c2 d2 e6 d2 d4- | d2 ^c=B c2 d2 e4 f4) | e4 A6 G2 A2 =B2 | (c4 d2 e2 f8 | %25
w: * ho- no- re|tu\- * * * *||o~, in ho- no- re|tu\- * * *|
 e4 A4) A16 |] %26
w: * * o.|
V:4
 z16 | z16 | D,12- ^C,4 | (D,6 E,2 F,2 G,2 A,4) | D,8 z8 | z4 D6 D2 ^C4 | D4 D,4 B,8 | %7
w: ||Vul- tum|tu\- * * * *|um|de- pre- ca-|bun- tur om-|
 A,8 G,6 G,2 | F,4 (F,6 G,2 A,2 F,2 | G,8) D,8- | D,16 | z4 G,6 A,2 =B,4 | C8 G,8 | %13
w: nes di- vi-|tes ple\- * * *|* bis:||fi- li- ae|Re- gum|
 F,6 G,2 A,4 B,4 | G,8- G,8 | F,8 z8 | C,6 D,2 E,4 F,4- | F,4 C,4 B,,6 C,2 | D,4 E,4 (F,4 G,4) | %19
w: in ho- no- re|tu\- *|o,|fi- li- ae Re\-|* gum in ho-|no- re tu\- *|
 F,8 z8 | D,6 E,2 F,4 (G,4 | A,12 B,4 | A,8 A,,6 =B,,2 | C,4 (D,4 E,4) F,4- | %24
w: o,|in ho- no- re|* tu-|o, in ho-|no- re * tu\-|
 F,2 E,2 D,2 C,2 D,2 E,2 F,2 G,2 | A,4 A,,4) D,16 |] %26
w: |* * o.|

